svg/Filled/chevron-down_filled.svg

<svg viewBox="0 0 24 24" xmlns="http://www.w3.org/2000/svg" width="24" height="24"><path d="M5.44 8.92a1.2 1.2 0 0 1 1.7 0l4.58 4.59.25.25.03.03.03-.03.25-.25 4.59-4.59.09-.08a1.2 1.2 0 0 1 1.69 1.7l-.09.08-4.58 4.59q-.28.28-.55.52a2 2 0 0 1-.75.44 2.2 2.2 0 0 1-1.36 0l-.12-.05a2 2 0 0 1-.63-.4q-.27-.23-.55-.51l-4.58-4.59a1.2 1.2 0 0 1 0-1.7"/></svg>

<svg viewBox="0 0 24 24" xmlns="http://www.w3.org/2000/svg" width="24" height="24"><path d="M5.44 8.92A1.2 1.2 0 0 1 7.14 8.92L12.03 13.76L16.96 8.84A1.2 1.2 0 0 1 18.65 10.54L13.98 15.21Q13.7 15.49 13.43 15.73A2 2 0 0 1 12.68 16.17A2.2 2.2 0 0 1 11.32 16.17L11.2 16.12A2 2 0 0 1 10.57 15.72Q10.3 15.49 10.02 15.21L5.44 10.62A1.2 1.2 0 0 1 5.44 8.92"/></svg>
